public/assets/imgs/escavadeira-icon.svg

<svg fill="none" height="140" viewBox="0 0 207 140" width="207" xmlns="http://www.w3.org/2000/svg"><path clip-rule="evenodd" d="m43.5 41.9466v-24.2459c.2293-1.8488 1.0571-4.6101 2.7375-6.8507 1.6387-2.18496 4.0386-3.85 7.7625-3.85h36c-.0003 0 .0029 0 .0095.00029.0067.00028.0162.00084.0284.00188.0248.0021.0585.00597.1001.01278.0842.01379.1901.03784.3104.07683.2419.07848.5101.20694.7672.40117.4502.33998 1.0738 1.03301 1.332 2.58245.1053.6319.2521 1.6316.4313 2.9246h-24.4789c-2.1434 0-5.2806.6142-7.9826 2.5596-2.8804 2.0739-5.0174 5.4997-5.0174 10.4404v16.6903zm25-21.9466h25.4044c.9813 7.6452 2.2221 17.8006 3.1206 25.2638l-34.525-2.1397v-17.1241c0-2.6593 1.0296-3.9835 2.1076-4.7596 1.2564-.9046 2.8692-1.2404 3.8924-1.2404zm31.95-3.9549c1.08 8.2341 2.651 21.1068 3.678 29.6589l29.088 1.8027c1.408.0872 2.625 1.0102 3.089 2.3415l16.195 46.4724v-6.8206c0-3.4464 1.642-5.8948 3.662-7.3965 1.88-1.3977 4.043-1.966 5.547-2.0914.213-.0177.427-.016.639.0053 1.326.1326 3.177.6443 4.892 1.7657 1.781 1.164 3.537 3.0801 4.177 5.9576.008.0363.015.0727.022.1092.007.0392.014.0785.02.1179 1.477 9.5968 6.692 19.2232 12.859 27.4892 5.717 7.664 12.061 13.902 16.43 17.543h2.252c1.933 0 3.5 1.567 3.5 3.5s-1.567 3.5-3.5 3.5h-39c-4.341 0-7.391-1.887-9.24-4.455-1.721-2.389-2.26-5.152-2.26-7.045v-5h-5.5c-1.358 0-2.593-.785-3.169-2.015l-25.113-53.6064-11.931-.6628.481 6.4589 4.025.3375c1.813.1521 3.207 1.6682 3.207 3.4878v6.0115c9.774 4.8058 16.5 14.8616 16.5 26.4885 0 16.292-13.208 29.5-29.5 29.5-14.9357 0-27.279-11.1-29.2311-25.5h-13.5378c-1.9521 14.4-14.2954 25.5-29.2311 25.5-16.2924 0-29.5-13.208-29.5-29.5 0-2.337.271743-4.61.785356-6.791-.49681-.609-.79207786-1.389-.78523977-2.237l.49999977-62.0002c.0155-1.9219 1.577904-3.4718 3.499884-3.4718h23c1.6644 0 3.0986 1.1722 3.43 2.8033l.5828 2.8694 5.4872.3401v-24.0128c0-.1246.0067-.249.0199-.3729.3022-2.8204 1.476-6.955 4.1176-10.4771 2.7363-3.64837 7.0864-6.65 13.3625-6.65h36c3.0241 0 8.3167 2.11059 9.4524 8.9246.2198 1.3192.5756 3.8973.9976 7.1205zm-93.36782 74.7788c5.41052-6.3192 13.44652-10.3239 22.41782-10.3239 15.2797 0 27.8461 11.6167 29.3493 26.5h13.3014c1.5032-14.8833 14.0696-26.5 29.3493-26.5 2.056 0 4.063.2103 6 .6106v-.3919l-74.2925-6.2309c-1.5498-.13-2.8279-1.267-3.1375-2.7911l-5.9305-29.1967h-16.66761zm123.37882-36.4746 21.658 62.1507h-2.894l-25.056-53.4848c-.546-1.1664-1.689-1.9384-2.975-2.0098l-17.928-.996-69.7969-6.7441-1.0135-4.9897zm-87.3224 6.8829 56.5903 5.468.4761 6.3821-56.8166-4.7652zm-7.0283-.6791.2438 6.9151-1.4279-7.0295zm142.5967 59.0899c3.842 5.15 7.952 9.701 11.663 13.357h-26.37c-2.059 0-3.009-.78-3.56-1.545-.679-.944-.94-2.182-.94-2.955v-39c0-.5482.119-.8898.239-1.1131.127-.2361.32-.4579.599-.6654.497-.3695 1.134-.5916 1.623-.6864.386.0863.941.2747 1.449.6068.578.3782.979.8541 1.152 1.5297 1.752 11.1524 7.681 21.8064 14.145 30.4714zm-149.207 12.857c12.4264 0 22.5-10.074 22.5-22.5 0-12.4264-10.0736-22.5-22.5-22.5s-22.5 10.0736-22.5 22.5c0 12.426 10.0736 22.5 22.5 22.5zm72 0c12.426 0 22.5-10.074 22.5-22.5 0-12.4264-10.074-22.5-22.5-22.5-12.4264 0-22.5 10.0736-22.5 22.5 0 12.426 10.0736 22.5 22.5 22.5zm6.5-22.5c0 3.59-2.91 6.5-6.5 6.5-3.5899 0-6.5-2.91-6.5-6.5s2.9101-6.5 6.5-6.5c3.59 0 6.5 2.91 6.5 6.5zm7 0c0 7.456-6.044 13.5-13.5 13.5-7.4558 0-13.5-6.044-13.5-13.5s6.0442-13.5 13.5-13.5c7.456 0 13.5 6.044 13.5 13.5zm-85.5 6.5c3.5898 0 6.5-2.91 6.5-6.5s-2.9102-6.5-6.5-6.5-6.5 2.91-6.5 6.5 2.9102 6.5 6.5 6.5zm0 7c7.4558 0 13.5-6.044 13.5-13.5s-6.0442-13.5-13.5-13.5-13.5 6.044-13.5 13.5 6.0442 13.5 13.5 13.5z" fill="#000" fill-rule="evenodd"/></svg>

<svg width="207" height="140" viewBox="0 0 207 140" fill="none" xmlns="http://www.w3.org/2000/svg">
<path fill-rule="evenodd" clip-rule="evenodd" d="M43.5 41.9466V17.7007C43.7293 15.8519 44.5571 13.0906 46.2375 10.85C47.8762 8.66504 50.2761 7 54 7H90C89.9997 7 90.0029 7 90.0095 7.00029C90.0162 7.00057 90.0257 7.00113 90.0379 7.00217C90.0627 7.00427 90.0964 7.00814 90.138 7.01495C90.2222 7.02874 90.3281 7.05279 90.4484 7.09178C90.6903 7.17026 90.9585 7.29872 91.2156 7.49295C91.6658 7.83293 92.2894 8.52596 92.5476 10.0754C92.6529 10.7073 92.7997 11.707 92.9789 13H68.5C66.3566 13 63.2194 13.6142 60.5174 15.5596C57.637 17.6335 55.5 21.0593 55.5 26V42.6903L43.5 41.9466ZM68.5 20H93.9044C94.8857 27.6452 96.1265 37.8006 97.025 45.2638L62.5 43.1241V26C62.5 23.3407 63.5296 22.0165 64.6076 21.2404C65.864 20.3358 67.4768 20 68.5 20ZM100.45 16.0451C101.53 24.2792 103.101 37.1519 104.128 45.704L133.216 47.5067C134.624 47.5939 135.841 48.5169 136.305 49.8482L152.5 96.3206V89.5C152.5 86.0536 154.142 83.6052 156.162 82.1035C158.042 80.7058 160.205 80.1375 161.709 80.0121C161.922 79.9944 162.136 79.9961 162.348 80.0174C163.674 80.15 165.525 80.6617 167.24 81.7831C169.021 82.9471 170.777 84.8632 171.417 87.7407C171.425 87.777 171.432 87.8134 171.439 87.8499C171.446 87.8891 171.453 87.9284 171.459 87.9678C172.936 97.5646 178.151 107.191 184.318 115.457C190.035 123.121 196.379 129.359 200.748 133H203C204.933 133 206.5 134.567 206.5 136.5C206.5 138.433 204.933 140 203 140H164C159.659 140 156.609 138.113 154.76 135.545C153.039 133.156 152.5 130.393 152.5 128.5V123.5H147C145.642 123.5 144.407 122.715 143.831 121.485L118.718 67.8786L106.787 67.2158L107.268 73.6747L111.293 74.0122C113.106 74.1643 114.5 75.6804 114.5 77.5V83.5115C124.274 88.3173 131 98.3731 131 110C131 126.292 117.792 139.5 101.5 139.5C86.5643 139.5 74.221 128.4 72.2689 114H58.7311C56.779 128.4 44.4357 139.5 29.5 139.5C13.2076 139.5 0 126.292 0 110C0 107.663 0.271743 105.39 0.785356 103.209C0.288546 102.6 -0.00672186 101.82 0.00011623 100.972L0.500116 38.9718C0.515616 37.0499 2.07802 35.5 4 35.5H27C28.6644 35.5 30.0986 36.6722 30.43 38.3033L31.0128 41.1727L36.5 41.5128V17.5C36.5 17.3754 36.5067 17.251 36.5199 17.1271C36.8221 14.3067 37.9959 10.1721 40.6375 6.65C43.3738 3.00163 47.7239 0 54 0H90C93.0241 0 98.3167 2.11059 99.4524 8.9246C99.6722 10.2438 100.028 12.8219 100.45 16.0451ZM7.08218 90.8239C12.4927 84.5047 20.5287 80.5 29.5 80.5C44.7797 80.5 57.3461 92.1167 58.8493 107H72.1507C73.6539 92.1167 86.2203 80.5 101.5 80.5C103.556 80.5 105.563 80.7103 107.5 81.1106V80.7187L33.2075 74.4878C31.6577 74.3578 30.3796 73.2208 30.07 71.6967L24.1395 42.5H7.47189L7.08218 90.8239ZM130.461 54.3493L152.119 116.5H149.225L124.169 63.0152C123.623 61.8488 122.48 61.0768 121.194 61.0054L103.266 60.0094L33.4691 53.2653L32.4556 48.2756L130.461 54.3493ZM43.1386 61.2322L99.7289 66.7002L100.205 73.0823L43.3884 68.3171L43.1386 61.2322ZM36.1103 60.5531L36.3541 67.4682L34.9262 60.4387L36.1103 60.5531ZM178.707 119.643C182.549 124.793 186.659 129.344 190.37 133H164C161.941 133 160.991 132.22 160.44 131.455C159.761 130.511 159.5 129.273 159.5 128.5V89.5C159.5 88.9518 159.619 88.6102 159.739 88.3869C159.866 88.1508 160.059 87.929 160.338 87.7215C160.835 87.352 161.472 87.1299 161.961 87.0351C162.347 87.1214 162.902 87.3098 163.41 87.6419C163.988 88.0201 164.389 88.496 164.562 89.1716C166.314 100.324 172.243 110.978 178.707 119.643ZM29.5 132.5C41.9264 132.5 52 122.426 52 110C52 97.5736 41.9264 87.5 29.5 87.5C17.0736 87.5 7 97.5736 7 110C7 122.426 17.0736 132.5 29.5 132.5ZM101.5 132.5C113.926 132.5 124 122.426 124 110C124 97.5736 113.926 87.5 101.5 87.5C89.0736 87.5 79 97.5736 79 110C79 122.426 89.0736 132.5 101.5 132.5ZM108 110C108 113.59 105.09 116.5 101.5 116.5C97.9101 116.5 95 113.59 95 110C95 106.41 97.9101 103.5 101.5 103.5C105.09 103.5 108 106.41 108 110ZM115 110C115 117.456 108.956 123.5 101.5 123.5C94.0442 123.5 88 117.456 88 110C88 102.544 94.0442 96.5 101.5 96.5C108.956 96.5 115 102.544 115 110ZM29.5 116.5C33.0898 116.5 36 113.59 36 110C36 106.41 33.0898 103.5 29.5 103.5C25.9102 103.5 23 106.41 23 110C23 113.59 25.9102 116.5 29.5 116.5ZM29.5 123.5C36.9558 123.5 43 117.456 43 110C43 102.544 36.9558 96.5 29.5 96.5C22.0442 96.5 16 102.544 16 110C16 117.456 22.0442 123.5 29.5 123.5Z" fill="black"/>
</svg>
